icons/svg/tourist/animal_lion.svg

<?xml version="1.0" encoding="UTF-8" standalone="no"?>
<!-- Created with Inkscape (http://www.inkscape.org/) -->

<svg
   xmlns:dc="http://purl.org/dc/elements/1.1/"
   xmlns:cc="http://creativecommons.org/ns#"
   xmlns:rdf="http://www.w3.org/1999/02/22-rdf-syntax-ns#"
   xmlns:svg="http://www.w3.org/2000/svg"
   xmlns="http://www.w3.org/2000/svg"
   xmlns:sodipodi="http://sodipodi.sourceforge.net/DTD/sodipodi-0.dtd"
   xmlns:inkscape="http://www.inkscape.org/namespaces/inkscape"
   version="1.0"
   width="580"
   height="580"
   id="svg2"
   sodipodi:version="0.32"
   inkscape:version="0.92.3 (2405546, 2018-03-11)"
   sodipodi:docname="animal_lion.svg"
   inkscape:output_extension="org.inkscape.output.svg.inkscape">
  <metadata
     id="metadata2975">
    <rdf:RDF>
      <cc:Work
         rdf:about="">
        <dc:format>image/svg+xml</dc:format>
        <dc:type
           rdf:resource="http://purl.org/dc/dcmitype/StillImage" />
        <cc:license
           rdf:resource="http://web.resource.org/cc/PublicDomain" />
        <dc:language>en</dc:language>
        <dc:title></dc:title>
      </cc:Work>
    </rdf:RDF>
  </metadata>
  <sodipodi:namedview
     inkscape:window-height="1006"
     inkscape:window-width="1920"
     inkscape:pageshadow="2"
     inkscape:pageopacity="0.0"
     guidetolerance="10.0"
     gridtolerance="10.0"
     objecttolerance="10.0"
     borderopacity="1.0"
     bordercolor="#666666"
     pagecolor="#ffffff"
     id="base"
     inkscape:zoom="0.46083856"
     inkscape:cx="41.672506"
     inkscape:cy="316.73866"
     inkscape:window-x="1920"
     inkscape:window-y="0"
     inkscape:current-layer="svg2"
     showgrid="false"
     inkscape:window-maximized="1" />
  <defs
     id="defs4">
    <inkscape:perspective
       sodipodi:type="inkscape:persp3d"
       inkscape:vp_x="0 : 290 : 1"
       inkscape:vp_y="0 : 1000 : 0"
       inkscape:vp_z="580 : 290 : 1"
       inkscape:persp3d-origin="290 : 193.33333 : 1"
       id="perspective2441" />
    <inkscape:perspective
       id="perspective3452"
       inkscape:persp3d-origin="30 : 20 : 1"
       inkscape:vp_z="60 : 30 : 1"
       inkscape:vp_y="0 : 1000 : 0"
       inkscape:vp_x="0 : 30 : 1"
       sodipodi:type="inkscape:persp3d" />
    <symbol
       viewBox="244.5 110 489 219.9"
       id="symbol-university">
      <path
         id="path4460"
         d="M79,43l57,119c0,0,21-96,104-96s124,106,124,106l43-133l82-17L0,17L79,43z" />
      <path
         id="path4462"
         d="M94,176l-21,39"
         stroke-width="20"
         stroke="#000000"
         fill="none" />
      <path
         id="path4464"
         d="M300,19c0,10.5-22.6,19-50.5,19S199,29.5,199,19s22.6-19,50.5-19S300,8.5,300,19z" />
      <path
         id="path4466"
         d="M112,216l-16-38L64,88c0,0-9-8-4-35s16-24,16-24"
         stroke-width="20"
         stroke="#000000"
         ill="none" />
    </symbol>
    <inkscape:perspective
       id="perspective4471"
       inkscape:persp3d-origin="372.04724 : 350.78739 : 1"
       inkscape:vp_z="744.09448 : 526.18109 : 1"
       inkscape:vp_y="0 : 1000 : 0"
       inkscape:vp_x="0 : 526.18109 : 1"
       sodipodi:type="inkscape:persp3d" />
    <inkscape:perspective
       id="perspective4668"
       inkscape:persp3d-origin="6 : 4 : 1"
       inkscape:vp_z="12 : 6 : 1"
       inkscape:vp_y="0 : 1000 : 0"
       inkscape:vp_x="0 : 6 : 1"
       sodipodi:type="inkscape:persp3d" />
    <inkscape:perspective
       id="perspective4904"
       inkscape:persp3d-origin="16 : 10.666667 : 1"
       inkscape:vp_z="32 : 16 : 1"
       inkscape:vp_y="0 : 1000 : 0"
       inkscape:vp_x="0 : 16 : 1"
       sodipodi:type="inkscape:persp3d" />
  </defs>
  <g
     id="g1327">
    <path
       d="M 66.275,1.768 C 24.94,1.768 1.704,23.139 1.704,66.804 L 1.704,516.927 C 1.704,557.771 22.599,579.156 63.896,579.156 L 515.92,579.156 C 557.227,579.156 578.149,558.841 578.149,516.927 L 578.149,66.804 C 578.149,24.203 557.227,1.768 514.628,1.768 C 514.624,1.768 66.133,1.625 66.275,1.768 z "
       style="fill:#111;stroke:#eee;stroke-width:3.40799999"
       id="path1329" />
  </g>
  <path
     style="color:#000000;clip-rule:nonzero;display:inline;overflow:visible;visibility:visible;opacity:1;isolation:auto;mix-blend-mode:normal;color-interpolation:sRGB;color-interpolation-filters:linearRGB;solid-color:#000000;solid-opacity:1;vector-effect:none;fill:#ffffff;fill-opacity:1;fill-rule:nonzero;stroke:none;stroke-width:40;stroke-linecap:round;stroke-linejoin:round;stroke-miterlimit:4;stroke-dasharray:none;stroke-dashoffset:0;stroke-opacity:1;marker:none;paint-order:normal;color-rendering:auto;image-rendering:auto;shape-rendering:auto;text-rendering:auto;enable-background:accumulate"
     d="m 240.47716,50.663395 -41.78651,7.813931 c -0.20473,0.04208 -15.21498,3.040454 -34.8545,12.801951 16.71665,9.667626 26.38341,21.975078 31.89898,32.124993 1.95262,3.59532 3.49053,7.09063 4.70353,10.37117 24.91395,-11.07404 54.8993,-13.41009 89.54885,-6.9178 34.64955,-6.49229 64.63336,-4.15138 89.54731,6.9178 1.213,-3.2854 2.75091,-6.77585 4.70353,-10.37117 5.52124,-10.161245 15.19906,-22.479377 31.94161,-32.151862 -19.70749,-9.825424 -34.67059,-12.733003 -34.89555,-12.775082 l -41.78969,-7.813931 z m -103.6057,37.174649 c -2.32486,1.742231 -4.65617,3.573801 -6.98102,5.515901 -19.26729,16.091145 -34.225158,35.992375 -44.454378,59.159235 -1.11266,2.52474 -2.15679,5.09533 -3.1594,7.69856 23.417728,1.12884 39.625258,9.85215 49.839098,18.07129 1.97286,1.5901 3.778,3.20238 5.43688,4.80785 7.57339,-19.06741 19.43541,-38.84856 38.04076,-54.04794 0.54055,-0.44102 1.09117,-0.8655 1.63739,-1.296 -0.93949,-3.60584 -2.52958,-8.09882 -5.22668,-12.80195 -7.10648,-12.4068 -18.90476,-21.496695 -35.13265,-27.106946 z m 306.24636,0.0032 c -28.60394,9.966221 -37.59831,29.023616 -40.42731,39.866216 0.56645,0.44102 1.13913,0.88228 1.69587,1.33868 18.60534,15.19938 30.47143,34.98053 38.03916,54.04794 1.65888,-1.60629 3.4656,-3.22184 5.43846,-4.80627 10.2187,-8.224 26.42991,-16.94719 49.85329,-18.07604 -1.09728,-2.83952 -2.25025,-5.64124 -3.47863,-8.38607 -10.37568,-23.22917 -25.52838,-43.14718 -45.03599,-59.201905 -2.02626,-1.66939 -4.05859,-3.26529 -6.08485,-4.782551 z M 252.23125,129.65143 c -24.02304,0.27557 -44.07348,6.86523 -59.8594,19.71816 -34.23523,27.87324 -40.44956,78.22662 -41.55575,94.09118 l 45.08815,49.54512 c 9.51469,-15.16701 19.19888,-25.02995 20.01213,-25.84887 l 10.37432,10.32691 8.31969,8.24856 c -0.33097,0.33582 -33.096,33.91391 -31.31736,68.21227 0.66112,12.75961 6.03087,23.99772 16.35962,34.16382 l 6.28245,-2.31542 59.66342,-21.97985 c -1.09162,-8.64398 -3.54814,-19.23074 -9.0799,-23.13518 -9.95651,-7.02717 -26.94021,-18.15415 0,-19.91256 0,0 6.43937,3.51817 13.46736,3.51817 7.03284,0 13.47204,-3.51817 13.47204,-3.51817 26.94021,1.75761 9.95652,12.88459 0,19.91256 -5.53176,3.90445 -7.98746,14.4912 -9.0799,23.13518 l 59.66975,21.98458 6.28238,2.31542 c 10.35465,-10.19281 15.72432,-21.45619 16.3644,-34.25708 0.88204,-17.6084 -7.56279,-35.08544 -14.80602,-46.64177 -8.02413,-12.81707 -16.41612,-21.38202 -16.50028,-21.46618 l 18.68296,-18.58969 c 0.81325,0.81811 10.49666,10.68028 20.01216,25.84729 l 45.08973,-49.54354 c -1.11267,-15.83947 -7.31639,-66.21305 -41.56215,-94.09276 -22.96698,-18.69436 -54.94598,-24.1381 -95.05365,-16.17629 l -2.56673,0.50892 -2.56511,-0.50892 c -12.53369,-2.48807 -24.27476,-3.66713 -35.19431,-3.54186 z M 77.321842,186.42255 c -0.9816,-2e-4 -1.97339,0.0177 -2.97448,0.0521 -3.76283,16.61146 -5.65189,34.51325 -5.61547,53.59117 l 25.00647,-5.99952 -1.82547,18.43797 c -0.021,0.23062 -1.95813,21.16602 1.51095,49.78535 12.249818,-15.88721 26.184568,-24.56253 37.520788,-29.27537 2.88645,-1.20167 5.69448,-2.18809 8.39238,-3.00135 l -15.14739,-16.64254 0.0269,-5.13342 c 0.006,-1.33277 0.1783,-15.37189 4.13614,-34.25075 -1.29635,-2.48265 -5.49944,-9.60413 -13.68702,-15.89653 -10.09666,-7.76387 -22.619778,-11.66418 -37.343758,-11.66716 z m 424.891988,0.0395 c -35.00366,0.32603 -48.23876,22.87058 -50.57722,27.49257 3.9627,18.8991 4.13604,32.9496 4.14089,34.28237 l 0.0267,5.13342 -15.14736,16.64254 c 2.69791,0.81325 5.50595,1.79966 8.3924,3.00134 11.33136,4.71284 25.27088,13.3833 37.5207,29.27537 3.46908,-28.61932 1.53215,-49.55435 1.50626,-49.80116 l -1.77962,-18.3953 24.97165,5.97899 c 0.0316,-19.06741 -1.84168,-36.96484 -5.59965,-53.57064 -1.17481,-0.0371 -2.32583,-0.05 -3.45492,-0.0395 z m -156.73541,21.48356 h 37.98705 c 0,0 -5.7572,5.49453 -17.5134,16.9934 4.34546,2.66635 7.32076,6.71224 7.89773,11.50438 1.15474,9.61017 -7.76219,18.57999 -19.91732,20.039 -6.21878,0.74528 -12.08078,-0.62509 -16.4845,-3.42334 -5.27928,5.24368 -11.01577,10.96452 -17.2305,17.17358 v -37.02766 c 0,-13.94997 11.31097,-25.25936 25.26094,-25.25936 z m -148.96569,0.002 h 37.98702 c 13.94998,0 25.26095,11.30938 25.26095,25.25935 v 37.02766 c -6.21392,-6.20906 -11.95122,-11.9307 -17.23049,-17.17357 -4.39805,2.80229 -10.26004,4.16862 -16.48449,3.42334 -12.15513,-1.46467 -21.07204,-10.4345 -19.9173,-20.03901 0.57777,-4.79214 3.55224,-8.83964 7.8977,-11.50437 -11.75054,-11.50453 -17.51339,-16.9934 -17.51339,-16.9934 z m -36.45078,84.82793 c -12.04509,0.76632 -42.17516,7.04335 -58.77043,49.02515 3.39625,11.96578 7.61481,23.2562 12.63757,33.73708 7.51594,15.6922 16.84317,29.62553 27.83871,41.59212 l 13.07854,-25.12343 11.93584,21.2133 c 0.12138,0.21525 12.81045,22.54259 35.10579,48.26493 19.40323,22.38922 50.15805,51.89673 88.10432,67.85192 37.94627,-15.95519 68.69615,-45.4627 88.10424,-67.85192 22.29534,-25.72234 34.98666,-48.04956 35.11209,-48.26967 l 11.94539,-21.15483 13.06906,25.07444 c 10.98988,-11.97145 20.32112,-25.89911 27.83706,-41.59211 5.02276,-10.48655 9.24198,-21.77593 12.64551,-33.74657 -8.73299,-22.14889 -22.10056,-37.09952 -39.77774,-44.45281 -7.68831,-3.20124 -14.61635,-4.22541 -19.03059,-4.52968 l -23.15578,25.4427 c 4.24188,11.3524 6.93387,23.90116 6.28246,36.90596 -1.12237,22.41593 -11.70239,42.00306 -31.44225,58.22043 l -5.83513,4.79204 -6.82932,-2.51297 c -0.22496,10.47116 -3.03777,21.76028 -12.54275,28.26228 -4.97502,3.40111 -10.74898,5.12709 -17.15144,5.12709 -6.67598,0 -13.23099,-1.85769 -19.57114,-3.65251 -6.38791,-1.81101 -12.98539,-3.67937 -19.65652,-3.67937 -6.67031,0 -13.27273,1.86836 -19.65497,3.67937 -6.3353,1.79482 -12.89031,3.65251 -19.57114,3.65251 -6.40898,0 -12.17646,-1.72033 -17.15148,-5.12709 -9.50498,-6.50201 -12.32424,-17.79193 -12.54434,-28.26228 l -6.82771,2.51297 -5.83674,-4.79204 c -19.73905,-16.21737 -30.31904,-35.8045 -31.44222,-58.22043 -0.6506,-13.00479 2.04138,-25.55356 6.28244,-36.90596 z m 129.93034,97.4987 -41.80863,15.40501 c -1.17497,7.54184 -0.89847,14.64621 0.48205,16.60934 0.31478,0.19502 0.84619,0.41567 2.10046,0.41567 3.01754,0 7.56822,-1.29009 12.38625,-2.65522 7.35248,-2.08291 16.50545,-4.67666 26.83987,-4.67666 10.33441,-1e-5 19.4873,2.59375 26.83978,4.67666 4.81804,1.36433 9.36879,2.65522 12.38633,2.65522 1.25994,0 1.78471,-0.22146 2.10516,-0.41567 1.48005,-2.09423 1.58039,-9.44056 0.47258,-16.60934 z"
     id="rect854"
     inkscape:connector-curvature="0"
     sodipodi:nodetypes="cccccccccccccccccccccccccccccccsccccccccccccscccccccccccccccscccccccccccccccccccccccccscsccccsscscccccccccccccccccccccccccccccscscsccccccccccscscsccccc" />
</svg>

<svg width="580" height="580" viewBox="0 0 580 580" fill="none" xmlns="http://www.w3.org/2000/svg">
<g clip-path="url(#clip0)">
<path d="M66.2751 1.7679C24.9401 1.7679 1.7041 23.1389 1.7041 66.8039V516.927C1.7041 557.771 22.5991 579.156 63.8961 579.156H515.92C557.227 579.156 578.149 558.841 578.149 516.927V66.8039C578.149 24.2029 557.227 1.7679 514.628 1.7679C514.624 1.7679 66.1331 1.6249 66.2751 1.7679Z" fill="#111111" stroke="#EEEEEE" stroke-width="3.408"/>
<path d="M240.477 50.6633L198.691 58.4773C198.486 58.5193 183.476 61.5177 163.836 71.2792C180.553 80.9468 190.22 93.2543 195.735 103.404C197.688 107 199.226 110.495 200.439 113.775C225.353 102.701 255.338 100.365 289.988 106.858C324.637 100.365 354.621 102.706 379.535 113.775C380.748 110.49 382.286 107 384.238 103.404C389.76 93.243 399.437 80.9248 416.18 71.2523C396.473 61.4269 381.509 58.5193 381.284 58.4773L339.495 50.6633H240.477ZM136.872 87.838C134.547 89.5802 132.215 91.4118 129.891 93.3539C110.623 109.445 95.6654 129.346 85.4361 152.513C84.3235 155.038 83.2793 157.608 82.2767 160.212C105.694 161.341 121.902 170.064 132.116 178.283C134.089 179.873 135.894 181.485 137.553 183.091C145.126 164.023 156.988 144.242 175.593 129.043C176.134 128.602 176.685 128.177 177.231 127.747C176.291 124.141 174.701 119.648 172.004 114.945C164.898 102.538 153.099 93.4482 136.872 87.838V87.838ZM443.118 87.8412C414.514 97.8074 405.52 116.865 402.691 127.707C403.257 128.148 403.83 128.59 404.386 129.046C422.992 144.245 434.858 164.027 442.426 183.094C444.084 181.488 445.891 179.872 447.864 178.288C458.083 170.064 474.294 161.341 497.717 160.212C496.62 157.372 495.467 154.57 494.239 151.826C483.863 128.596 468.71 108.678 449.203 92.6237C447.176 90.9543 445.144 89.3584 443.118 87.8412V87.8412ZM252.231 129.651C228.208 129.927 208.158 136.517 192.372 149.37C158.137 177.243 151.922 227.596 150.816 243.461L195.904 293.006C205.419 277.839 215.103 267.976 215.916 267.157L226.291 277.484L234.61 285.732C234.279 286.068 201.514 319.646 203.293 353.945C203.954 366.704 209.324 377.942 219.653 388.109L225.935 385.793L285.599 363.813C284.507 355.169 282.05 344.583 276.519 340.678C266.562 333.651 249.578 322.524 276.519 320.766C276.519 320.766 282.958 324.284 289.986 324.284C297.019 324.284 303.458 320.766 303.458 320.766C330.398 322.523 313.415 333.65 303.458 340.678C297.926 344.583 295.471 355.169 294.378 363.813L354.048 385.798L360.33 388.113C370.685 377.92 376.055 366.657 376.695 353.856C377.577 336.248 369.132 318.771 361.889 307.214C353.865 294.397 345.473 285.832 345.388 285.748L364.071 267.159C364.885 267.977 374.568 277.839 384.084 293.006L429.173 243.462C428.061 227.623 421.857 177.249 387.611 149.37C364.644 130.675 332.665 125.231 292.557 133.193L289.991 133.702L287.426 133.193C274.892 130.705 263.151 129.526 252.231 129.651V129.651ZM77.3219 186.422C76.3403 186.422 75.3485 186.44 74.3474 186.475C70.5846 203.086 68.6955 220.988 68.732 240.066L93.7384 234.066L91.913 252.504C91.892 252.735 89.9548 273.67 93.4239 302.29C105.674 286.402 119.608 277.727 130.945 273.014C133.831 271.813 136.639 270.826 139.337 270.013L124.19 253.37L124.217 248.237C124.223 246.904 124.395 232.865 128.353 213.986C127.056 211.503 122.853 204.382 114.666 198.09C104.569 190.326 92.0459 186.425 77.322 186.422L77.3219 186.422ZM502.214 186.462C467.21 186.788 453.975 209.333 451.637 213.955C455.599 232.854 455.773 246.904 455.778 248.237L455.804 253.37L440.657 270.013C443.355 270.826 446.163 271.813 449.049 273.014C460.381 277.727 474.32 286.398 486.57 302.29C490.039 273.67 488.102 252.735 488.076 252.488L486.297 234.093L511.268 240.072C511.3 221.005 509.427 203.107 505.669 186.501C504.494 186.464 503.343 186.451 502.214 186.462H502.214ZM345.478 207.946H383.466C383.466 207.946 377.708 213.44 365.952 224.939C370.298 227.605 373.273 231.651 373.85 236.443C375.005 246.053 366.088 255.023 353.933 256.482C347.714 257.228 341.852 255.857 337.448 253.059C332.169 258.303 326.432 264.024 320.218 270.233V233.205C320.218 219.255 331.529 207.946 345.478 207.946V207.946ZM196.513 207.948H234.5C248.45 207.948 259.761 219.257 259.761 233.207V270.235C253.547 264.025 247.81 258.304 242.53 253.061C238.132 255.863 232.27 257.23 226.046 256.484C213.891 255.02 204.974 246.05 206.128 236.445C206.706 231.653 209.681 227.606 214.026 224.941C202.276 213.436 196.513 207.948 196.513 207.948V207.948ZM160.062 292.775C148.017 293.542 117.887 299.819 101.292 341.801C104.688 353.766 108.906 365.057 113.929 375.538C121.445 391.23 130.772 405.163 141.768 417.13L154.846 392.006L166.782 413.22C166.904 413.435 179.593 435.762 201.888 461.485C221.291 483.874 252.046 513.381 289.992 529.337C327.939 513.381 358.688 483.874 378.097 461.485C400.392 435.762 413.083 413.435 413.209 413.215L425.154 392.06L438.223 417.135C449.213 405.163 458.544 391.235 466.06 375.542C471.083 365.056 475.302 353.767 478.706 341.796C469.973 319.647 456.605 304.696 438.928 297.343C431.24 294.142 424.312 293.118 419.897 292.813L396.742 318.256C400.983 329.609 403.675 342.157 403.024 355.162C401.902 377.578 391.322 397.165 371.582 413.382L365.747 418.175L358.917 415.662C358.692 426.133 355.88 437.422 346.375 443.924C341.4 447.325 335.626 449.051 329.223 449.051C322.547 449.051 315.992 447.193 309.652 445.398C303.264 443.587 296.667 441.719 289.996 441.719C283.325 441.719 276.723 443.587 270.341 445.398C264.005 447.193 257.45 449.051 250.769 449.051C244.36 449.051 238.593 447.331 233.618 443.924C224.113 437.422 221.294 426.132 221.074 415.662L214.246 418.175L208.409 413.382C188.67 397.165 178.09 377.578 176.967 355.162C176.316 342.157 179.008 329.609 183.249 318.256L160.062 292.775ZM289.992 390.274L248.184 405.679C247.009 413.221 247.285 420.325 248.666 422.289C248.981 422.484 249.512 422.704 250.766 422.704C253.784 422.704 258.334 421.414 263.152 420.049C270.505 417.966 279.658 415.372 289.992 415.372C300.327 415.372 309.48 417.966 316.832 420.049C321.65 421.413 326.201 422.704 329.218 422.704C330.478 422.704 331.003 422.483 331.324 422.289C332.804 420.194 332.904 412.848 331.796 405.679L289.992 390.274Z" fill="white"/>
</g>
<defs>
<clipPath id="clip0">
<path d="M0 0H580V580H0V0Z" fill="white"/>
</clipPath>
</defs>
</svg>
